X: 20212
T: The BOB OF FETTERCAIRN
R: Reel.
%R: reel
B: W. Hamilton "Universal Tune-Book" Vol. 2 Glasgow 1846 p.21 #2
S: http://s3-eu-west-1.amazonaws.com/itma.dl.printmaterial/book_pdfs/hamiltonvol2web.pdf
Z: 2016 John Chambers <jc:trillian.mit.edu>
M: C
L: 1/8
K: G
% - - - - - - - - - - - - - - - - - - - - - - - - -
(B/c/) !segno!|:\
dBGB dBGB | dBde f2df |\
e^cAc ecAc | e>def {ef}g2fe |\
dBGB dBGB | dBde f2df/g/ |\
aefd e>dBa | A/A/A Bd e2g2 |]
dgBg dgBg | dgBg f2df |\
ea^ca Aaca | e>def {ef}g2fe |\
dgBg dgBg | dgBg f2df/g/ |\
aefd e>dBa | AA/A/ Bd e2g2 !segno!|]
% - - - - - - - - - - - - - - - - - - - - - - - - -

%%sep 1 1 500
%%sep 1 1 500

